client/src/assets/community/community-calls.svg

<svg width="95" height="56" viewBox="0 0 95 56" fill="none" xmlns="http://www.w3.org/2000/svg">
<g id="Group 613">
<g id="Group 63">
<circle id="Ellipse 100" cx="70" cy="24.998" r="25" fill="#E1F5E5"/>
</g>
<path id="Vector" d="M68.3333 0.998047C72.0917 0.998047 75.1667 4.03888 75.1667 7.83138V41.998C75.1667 45.7905 72.1258 48.8314 68.3333 48.8314H82V55.6647H0V48.8314H13.6667C9.90833 48.8314 6.83333 45.7905 6.83333 41.998V7.83138C6.83333 4.03888 9.87417 0.998047 13.6667 0.998047H68.3333ZM68.3333 7.83138H13.6667V41.998H68.3333V7.83138ZM41 28.3314C48.5508 28.3314 54.6667 31.4064 54.6667 35.1647V38.5814H27.3333V35.1647C27.3333 31.4064 33.4492 28.3314 41 28.3314ZM41 11.248C44.7925 11.248 47.8333 14.323 47.8333 18.0814C47.8333 21.8397 44.7925 24.9147 41 24.9147C37.2075 24.9147 34.1667 21.8739 34.1667 18.0814C34.1667 14.2889 37.2417 11.248 41 11.248Z" fill="#007936"/>
</g>
</svg>

<svg xmlns="http://www.w3.org/2000/svg" fill="none" viewBox="0 0 95 56"><circle cx="70" cy="24.998" r="25" fill="#E1F5E5"/><path fill="#007936" d="M68.333.998a6.83 6.83 0 0 1 6.834 6.833v34.167a6.81 6.81 0 0 1-6.834 6.833H82v6.834H0V48.83h13.667a6.83 6.83 0 0 1-6.834-6.833V7.831A6.81 6.81 0 0 1 13.667.998zm0 6.833H13.667v34.167h54.666zM41 28.331c7.55 0 13.667 3.075 13.667 6.834v3.416H27.333v-3.416c0-3.759 6.116-6.834 13.667-6.834m0-17.083a6.83 6.83 0 0 1 6.833 6.833A6.83 6.83 0 0 1 41 24.915a6.81 6.81 0 0 1-6.833-6.834A6.83 6.83 0 0 1 41 11.248"/></svg>
